X:1
T:Title
%%score 1 2 { ( 3 4 ) | ( 5 6 ) }
L:1/8
Q:1/4=120
M:4/4
K:F
V:1 treble nm="Midi_20"
V:2 treble nm="Midi_20"
V:3 treble nm="Midi_20"
V:4 treble 
V:5 bass 
V:6 bass 
V:1
 z2 | z2 A2 c3 d | e2"^Descant to \"While shepherds watched\"" f2 f2 (ed) | e3 c (de) (fg) | %4
w: |All glo- ry|be to God on *|high and on * the *|
 e2"^Andrew Sims" d2 c2 z2 | z2 d2 g3 f | e2 d2 ^c2 A2 | B2 cd (_ed) (cB) | A6 |] %9
w: earth be peace|Good will from|heav'n to men be-|gin and * ne * ver *|cease.|
V:2
 F2 | A3 A G2 F2 | B2 B2 A2 G2 | A2 c2 c2 =B2 | c6 A2 | d3 c B2 A2 | G2 F2 E2 A2 | G2 F2 F2 E2 | %8
w: All|glo- ry be to|God on high and|on the earth be|peace, Good|will hence- forth from|heav'n to men be-|gin and ne- ver|
 F6 |] %9
w: cease.|
V:3
 F2 | A2 A2 c3 d | e2 f2 c3 B | A2 e2 d2 =B2 | c6 A2 | d3 c B2 AB | c2 f2 e2 A2 | %7
 B2 AB cd !courtesy!=e2 | f6 |] %9
V:4
 F2 | F2 F2 E2 F2 | G2 B2 A2 G2 | E2 G2 G2 G2 | G6 ^F2 | G3 A G2 C2 | E2 A2 E2 F2 | G2 C2 F2 G2 | %8
 A6 |] %9
V:5
 F,2 | C2 D2 G,2 F,2 | B,2 D2 C2 E2 | A,2 C2 C2 D2 | E6 D2 | B,2 D2 B,2 A,2 | G,2 D2 ^C2 D2 | %7
 D2 F,2 G,2 C2 | C6 |] %9
V:6
 F,2 | F,2 D,2 C,2 A,,B,, | C,2 D,E, F,2 C,2- | C,2 E,2 G,2 G,2 | C,6 D,2 | G,2 D,2 _E,2 F,2 | %6
 C,2 D,2 A,,2 D,2 | B,,2 A,,2 C,2 C,2 | F,,6 |] %9

